src/activities/baby_tangram/resource/m-car1/headlights.svg

<?xml version="1.0" encoding="UTF-8" standalone="no"?>
<!-- Created with Inkscape (http://www.inkscape.org/) -->

<svg
   xmlns:dc="http://purl.org/dc/elements/1.1/"
   xmlns:cc="http://creativecommons.org/ns#"
   xmlns:rdf="http://www.w3.org/1999/02/22-rdf-syntax-ns#"
   xmlns:svg="http://www.w3.org/2000/svg"
   xmlns="http://www.w3.org/2000/svg"
   xmlns:sodipodi="http://sodipodi.sourceforge.net/DTD/sodipodi-0.dtd"
   xmlns:inkscape="http://www.inkscape.org/namespaces/inkscape"
   width="38.522617mm"
   height="36.032337mm"
   viewBox="0 0 136.49746 127.67363"
   id="svg7733"
   version="1.1"
   inkscape:version="0.92.1 r15371"
   sodipodi:docname="headlights.svg">
  <defs
     id="defs7735" />
  <sodipodi:namedview
     id="base"
     pagecolor="#ffffff"
     bordercolor="#666666"
     borderopacity="1.0"
     inkscape:pageopacity="0.0"
     inkscape:pageshadow="2"
     inkscape:zoom="2.8"
     inkscape:cx="58.342689"
     inkscape:cy="72.942444"
     inkscape:document-units="px"
     inkscape:current-layer="g8354"
     showgrid="false"
     fit-margin-top="0"
     fit-margin-left="0"
     fit-margin-right="0"
     fit-margin-bottom="0"
     inkscape:window-width="1884"
     inkscape:window-height="1051"
     inkscape:window-x="0"
     inkscape:window-y="0"
     inkscape:window-maximized="1"
     borderlayer="true" />
  <metadata
     id="metadata7738">
    <rdf:RDF>
      <cc:Work
         rdf:about="">
        <dc:format>image/svg+xml</dc:format>
        <dc:type
           rdf:resource="http://purl.org/dc/dcmitype/StillImage" />
        <dc:title></dc:title>
        <dc:date>2017</dc:date>
        <dc:creator>
          <cc:Agent>
            <dc:title>Timothée Giet</dc:title>
          </cc:Agent>
        </dc:creator>
        <cc:license
           rdf:resource="http://creativecommons.org/licenses/by-sa/4.0/" />
      </cc:Work>
      <cc:License
         rdf:about="http://creativecommons.org/licenses/by-sa/4.0/">
        <cc:permits
           rdf:resource="http://creativecommons.org/ns#Reproduction" />
        <cc:permits
           rdf:resource="http://creativecommons.org/ns#Distribution" />
        <cc:requires
           rdf:resource="http://creativecommons.org/ns#Notice" />
        <cc:requires
           rdf:resource="http://creativecommons.org/ns#Attribution" />
        <cc:permits
           rdf:resource="http://creativecommons.org/ns#DerivativeWorks" />
        <cc:requires
           rdf:resource="http://creativecommons.org/ns#ShareAlike" />
      </cc:License>
    </rdf:RDF>
  </metadata>
  <g
     inkscape:label="Calque 1"
     inkscape:groupmode="layer"
     id="layer1"
     transform="translate(-168.51313,-378.56068)">
    <g
       id="g8354">
      <path
         style="opacity:1;fill:#999999;fill-opacity:1;stroke:none;stroke-width:2.13333344;stroke-linejoin:round;stroke-miterlimit:4;stroke-dasharray:none;stroke-opacity:1"
         d="M 118.3418 0.03515625 C 99.653487 -0.0029237507 71.463439 11.928636 62.636719 16.066406 C 51.492516 21.290492 34.323248 34.237925 20.712891 50.378906 C 7.102533 66.519877 -2.9951784 85.90481 0.75976562 104 A 1.0667734 1.0667734 0 0 0 0.7734375 104.06445 C 4.2839762 116.91191 9.0622454 126.35407 16.435547 131.58984 C 23.808838 136.82562 33.635155 137.63247 46.644531 133.58789 C 59.601438 129.55963 84.509166 119.14829 106.11719 106.64062 C 116.92119 100.38679 126.88979 93.617289 134.12695 86.8125 C 141.36412 80.0077 145.9909 73.132052 145.60938 66.478516 C 144.84888 53.215593 141.69525 23.071429 134.30078 7.3417969 C 133.04216 4.6644208 130.82589 2.7979769 128.06641 1.6542969 C 125.30692 0.51060619 121.99826 0.04261225 118.3418 0.03515625 z "
         transform="matrix(0.93749998,0,0,0.93749998,168.51313,378.56068)"
         id="path16789" />
    </g>
  </g>
</svg>

<!--Created with Inkscape (http://www.inkscape.org/)--><svg xmlns:dc="http://purl.org/dc/elements/1.1/" xmlns:cc="http://creativecommons.org/ns#" xmlns:rdf="http://www.w3.org/1999/02/22-rdf-syntax-ns#" xmlns="http://www.w3.org/2000/svg" xmlns:sodipodi="http://sodipodi.sourceforge.net/DTD/sodipodi-0.dtd" xmlns:inkscape="http://www.inkscape.org/namespaces/inkscape" width="38.522617mm" height="36.032337mm" viewBox="0 0 136.49746 127.67363" inkscape:version="0.92.1 r15371" sodipodi:docname="headlights.svg"><sodipodi:namedview pagecolor="#ffffff" bordercolor="#666666" borderopacity="1.0" inkscape:pageopacity="0.0" inkscape:pageshadow="2" inkscape:zoom="2.8" inkscape:cx="58.342689" inkscape:cy="72.942444" inkscape:document-units="px" inkscape:current-layer="g8354" showgrid="false" fit-margin-top="0" fit-margin-left="0" fit-margin-right="0" fit-margin-bottom="0" inkscape:window-width="1884" inkscape:window-height="1051" inkscape:window-x="0" inkscape:window-y="0" inkscape:window-maximized="1" borderlayer="true"/><metadata><rdf:RDF><cc:Work><dc:format>image/svg+xml</dc:format><dc:type rdf:resource="http://purl.org/dc/dcmitype/StillImage"/><dc:title/><dc:date>2017</dc:date><dc:creator><cc:Agent><dc:title>Timothée Giet</dc:title></cc:Agent></dc:creator><cc:license rdf:resource="http://creativecommons.org/licenses/by-sa/4.0/"/></cc:Work><cc:License rdf:about="http://creativecommons.org/licenses/by-sa/4.0/"><cc:permits rdf:resource="http://creativecommons.org/ns#Reproduction"/><cc:permits rdf:resource="http://creativecommons.org/ns#Distribution"/><cc:requires rdf:resource="http://creativecommons.org/ns#Notice"/><cc:requires rdf:resource="http://creativecommons.org/ns#Attribution"/><cc:permits rdf:resource="http://creativecommons.org/ns#DerivativeWorks"/><cc:requires rdf:resource="http://creativecommons.org/ns#ShareAlike"/></cc:License></rdf:RDF></metadata><path style="opacity:1;fill:#999;fill-opacity:1;stroke:none;stroke-width:2.13333344;stroke-linejoin:round;stroke-miterlimit:4;stroke-dasharray:none;stroke-opacity:1" d="M118.342.035C99.653-.003 71.463 11.93 62.637 16.066 51.493 21.29 34.323 34.238 20.713 50.38 7.103 66.519-2.995 85.905.76 104a1.067 1.067 0 0 0 .013.064c3.511 12.848 8.29 22.29 15.663 27.526 7.373 5.236 17.2 6.042 30.209 1.998 12.956-4.028 37.864-14.44 59.472-26.947 10.804-6.254 20.773-13.024 28.01-19.829 7.237-6.804 11.864-13.68 11.482-20.333-.76-13.263-3.914-43.408-11.308-59.137-1.259-2.678-3.475-4.544-6.235-5.688-2.76-1.143-6.068-1.611-9.724-1.619z" transform="rotate(.012) scale(.9375)" inkscape:label="Calque 1" inkscape:groupmode="layer"/></svg>
